packages/core/src/svgs/tokens/mono/GT.svg

<svg width="24" height="24" viewBox="0 0 24 24" fill="none" xmlns="http://www.w3.org/2000/svg">
<path d="M21.4446 7.55557L15.3334 10.8889V14.2222L17.0001 13.2223V15.5278L11.4445 18.6667L7.04455 15.8222C6.69162 15.6244 6.39823 15.3356 6.19497 14.9857C5.99172 14.6359 5.88605 14.2379 5.88899 13.8333V8.41112L10.489 5.61112C10.7946 5.4389 11.089 5.33334 11.4445 5.33334C11.8001 5.33334 12.2002 5.4389 12.5113 5.61112L17.4279 8.41112L20.439 6.70001L12.7723 2.33889C12.3835 2.11667 11.8946 2 11.4445 2C11.0002 2 10.6113 2.11112 10.2224 2.33334L2.55566 6.70556V15.55C2.55566 16.3778 3.0001 17.1333 3.72233 17.5501L11.4445 22L19.1557 17.5445C19.5111 17.3406 19.8068 17.0471 20.0136 16.6932C20.2202 16.3393 20.3305 15.9376 20.3335 15.5278V11.4445L21.4446 10.8889V7.55557Z" fill="white"/>
</svg>

<svg xmlns="http://www.w3.org/2000/svg" width="24" height="24" fill="none" viewBox="0 0 24 24">
    <path fill="#fff" d="m21.445 7.556-6.112 3.333v3.333l1.667-1v2.306l-5.555 3.139-4.4-2.845a2.26 2.26 0 0 1-1.156-1.989V8.411l4.6-2.8c.306-.172.6-.278.955-.278.356 0 .756.106 1.067.278l4.917 2.8L20.439 6.7l-7.667-4.361A2.76 2.76 0 0 0 11.444 2c-.444 0-.833.111-1.222.333L2.556 6.706v8.844c0 .828.444 1.583 1.166 2L11.445 22l7.71-4.456a2.35 2.35 0 0 0 1.178-2.016v-4.084l1.112-.555z"/>
</svg>
